X:1
T:Thurland Castle, 87.87.87 D
T:Thurland Castle, 87.87.87 D
T:Henry Lake Gilmour, 1893
T:Public Domain Courtesy of the Cyber Hymnal™
C:Henry Lake Gilmour, 1893
Z:Public Domain
Z:Courtesy of the Cyber Hymnal™
%%score ( 1 2 ) 3
L:1/8
Q:1/4=95
M:3/4
K:D
V:1 treble 
V:2 treble 
V:3 bass 
V:1
 [DF]>[EG] | [FA]3 [GB] [FA]>[DF] | [CE] D3 [FA]>[FA] | [GB]3 [Gd] [FA]>[DF] | [FA]4 [FA]>[FA] | %5
 [Gc]3 [Gc] [GB]>[GA] | [Fd]2 [FA]2 D>[CE] | [DF]3 [DB] [DA]>[DF] | [CE]4 |: [CF]>[CE] | %10
 [A,D]3 [DF] [FA]>[FA] | [GB] [FA]3 [FA]>[FA] | [Fd]3 [Ad] [^Gd]>[=Gd] | [Fd]4 [Ac]>[GB] | %14
 [FA]3 [FA] [GB]>[FA] | [FA] [DF]3 D>[DE] | [DF]3 D [CF]>[CE] | [A,D]4 :| %18
V:2
 x2 | x6 | x D3 x2 | x6 | x6 | x6 | x4 D3/2 x/ | x6 | x4 |: x2 | x6 | x6 | x6 | x6 | x6 | %15
 x4 D3/2 x/ | x3 D x2 | x4 :| %18
V:3
 [D,A,]>[D,A,] | [D,D]3 [D,D] [D,D]>[D,A,] | [A,,G,] [D,F,]3 [D,D]>[D,D] | %3
 [D,D]3 [D,B,] [D,D]>[D,A,] | [D,D]4 [D,D]>[D,D] | [A,E]3 [A,E] [A,D]>[A,C] | %6
 [D,A,]2 [D,D]2 [F,A,]>[E,A,] | [D,A,]3 [D,G,] [D,F,]>[D,A,] | [A,,A,]4 |: [A,,A,]>[A,,G,] | %10
 [D,F,]3 [D,A,] [D,D]>[D,D] | [D,D] [D,D]3 [D,D]>[D,D] | [D,A,]3 [D,=C] [D,B,]>[D,_B,] | %13
 [D,A,]4 [D,D]>[D,D] | [D,D]3 [D,D] [D,D]>[D,D] | [D,D] [D,A,]3 [B,,^G,]>[B,,G,] | %16
 [A,,A,]3 [A,,F,] [A,,A,]>[A,,G,] | [D,F,]4 :| %18

